X:1     %Music
T:Pay Me My Money Down
B:Singing Together, Spring 1977, BBC Publications
M:4/4     %Meter
L:1/8     %
K:D
[A3F3] [F3D3] [B2F2] |[A3F3] [F3D3] z2 |z2 [A2F2] [B2F2] [A2F2] |[GE] [F2D2] [EC]-[E2C2] z2 |
w:Pay me, O pay me, Pay me my mon-ey down_
z2 [E2C2] [E2C2] [F2D2] |[GE] [A2F2] [BG]-[B2G2] z2 |z2 [A2C2] [A2C2] [G2C2] |[FC] [E2C2] D-D2 z 
w:Pay me or go to jail_ Pay me my mon-ey down_
A | A2 A2 F2 B2 |A A2 F-F2 z2 |z2 [A2F2] [B2F2] [A2F2] |[GE] [F2D2] [EC]-[E2C2] z 
w:I thought I heard our Cap-tain say_ Pay me my mon-ey down_
E |G2 G2 E2 E2 |G A2 B-B2 z2 |z2 [A2C2] [A2C2] [G2C2] |[FC] [E2C2] D-D2 z2 |]
w:To-mor-row is our sail-ing day_ Pay me my mon-ey down_ 
     %End of file